assets/Wind chime/Flat/wind_chime_flat.svg

<svg width="32" height="32" viewBox="0 0 32 32" fill="none" xmlns="http://www.w3.org/2000/svg">
<path d="M13.2002 21.58V22.48C13.2002 24.48 13.6202 26.45 14.4302 28.27L15.0502 29.66C15.1402 29.87 15.3502 30 15.5802 30H21.0502C21.4702 30 21.7502 29.57 21.5802 29.19L21.1702 28.26C20.3602 26.44 19.9402 24.46 19.9402 22.47V21.57C19.9402 21.25 19.6802 20.99 19.3602 20.99H13.7902C13.4602 21.01 13.2002 21.27 13.2002 21.58Z" fill="#CDC4D6"/>
<path d="M16.4902 1.5C16.7664 1.5 16.9902 1.72386 16.9902 2V21.5312C16.9902 21.8074 16.7664 22.0312 16.4902 22.0312C16.2141 22.0312 15.9902 21.8074 15.9902 21.5312V2C15.9902 1.72386 16.2141 1.5 16.4902 1.5Z" fill="#00A6ED"/>
<path d="M19.55 3.53999H13.44C10.44 3.53999 8 5.98 8 8.98C8 11.98 10.44 14.42 13.44 14.42H19.55C22.55 14.42 24.99 11.98 24.99 8.98C24.99 5.97 22.55 3.53999 19.55 3.53999Z" fill="#83CBFF"/>
<path d="M16.4898 18.46C17.3071 18.46 17.9698 17.7974 17.9698 16.98C17.9698 16.1626 17.3071 15.5 16.4898 15.5C15.6724 15.5 15.0098 16.1626 15.0098 16.98C15.0098 17.7974 15.6724 18.46 16.4898 18.46Z" fill="#FCD53F"/>
<path d="M20.8301 5.75999C20.8301 5.99999 21.0201 6.19 21.2601 6.19C21.4101 6.19 21.5401 6.30999 21.5501 6.45999C21.5501 6.60999 21.4201 6.74001 21.2701 6.74001H21.2601C21.0201 6.74001 20.8301 6.93 20.8301 7.17V7.17999C20.8301 7.33999 20.7001 7.45999 20.5501 7.45999C20.3901 7.45999 20.2701 7.32999 20.2701 7.17999V7.17C20.2701 6.93 20.0801 6.74001 19.8401 6.74001H19.8301C19.6701 6.74001 19.5501 6.61999 19.5501 6.45999C19.5601 6.30999 19.6901 6.19 19.8401 6.19C20.0801 6.19 20.2701 5.99999 20.2701 5.75999V5.75C20.2701 5.59 20.4001 5.47 20.5501 5.47C20.7101 5.47 20.8301 5.6 20.8301 5.75V5.75999Z" fill="#F37366"/>
<path d="M20.8401 9.75999C20.8401 9.99999 21.0301 10.19 21.2701 10.19C21.4201 10.19 21.5501 10.31 21.5602 10.46C21.5602 10.61 21.4302 10.74 21.2802 10.74H21.2701C21.0301 10.74 20.8401 10.93 20.8401 11.17V11.18C20.8401 11.34 20.7102 11.46 20.5602 11.46C20.4002 11.46 20.2802 11.33 20.2802 11.18V11.17C20.2802 10.93 20.0901 10.74 19.8501 10.74H19.8401C19.6801 10.74 19.5602 10.62 19.5602 10.46C19.5702 10.31 19.7001 10.19 19.8501 10.19C20.0901 10.19 20.2802 9.99999 20.2802 9.75999V9.75C20.2802 9.59 20.4102 9.47 20.5602 9.47C20.7201 9.47 20.8401 9.6 20.8401 9.75V9.75999Z" fill="#F37366"/>
<path d="M23.6902 8.2C23.4502 8.2 23.2602 8.01 23.2602 7.77V7.75999C23.2602 7.60999 23.1402 7.48 22.9802 7.48C22.8302 7.48 22.7002 7.59999 22.7002 7.75999V7.77C22.7002 8.01 22.5102 8.2 22.2702 8.2C22.1202 8.2 21.9902 8.32 21.9802 8.47C21.9802 8.63 22.1002 8.75 22.2602 8.75H22.2702C22.5102 8.75 22.7002 8.93999 22.7002 9.17999V9.19C22.7002 9.34 22.8202 9.47 22.9802 9.47C23.1302 9.47 23.2602 9.35 23.2602 9.19V9.17999C23.2602 8.93999 23.4502 8.75 23.6902 8.75H23.7002C23.8502 8.75 23.9802 8.62 23.9802 8.47C23.9702 8.32 23.8402 8.2 23.6902 8.2Z" fill="#F37366"/>
<path d="M17.2502 23.54C17.2502 23.91 16.9502 24.21 16.5802 24.21C16.2101 24.21 15.9102 23.91 15.9102 23.54C15.9102 23.17 16.2101 22.87 16.5802 22.87C16.9502 22.87 17.2502 23.17 17.2502 23.54Z" fill="#F37366"/>
<path d="M17.1502 26.51C17.5202 26.51 17.8202 26.21 17.8202 25.84C17.8202 25.47 17.5202 25.17 17.1502 25.17C16.7801 25.17 16.4802 25.47 16.4802 25.84C16.4802 26.21 16.7801 26.51 17.1502 26.51Z" fill="#F37366"/>
<path d="M18.5902 28.12C18.5902 28.49 18.2902 28.79 17.9202 28.79C17.5501 28.79 17.2502 28.49 17.2502 28.12C17.2502 27.75 17.5501 27.45 17.9202 27.45C18.2902 27.45 18.5902 27.75 18.5902 28.12Z" fill="#F37366"/>
</svg>

<svg xmlns="http://www.w3.org/2000/svg" width="32" height="32" fill="none"><path fill="#CDC4D6" d="M13.2 21.58v.9c0 2 .42 3.97 1.23 5.79l.62 1.39c.09.21.3.34.53.34h5.47c.42 0 .7-.43.53-.81l-.41-.93c-.81-1.82-1.23-3.8-1.23-5.79v-.9a.58.58 0 0 0-.58-.58h-5.57c-.33.02-.59.28-.59.59Z"/><path fill="#00A6ED" d="M16.49 1.5a.5.5 0 0 1 .5.5v19.531a.5.5 0 1 1-1 0V2a.5.5 0 0 1 .5-.5Z"/><path fill="#83CBFF" d="M19.55 3.54h-6.11c-3 0-5.44 2.44-5.44 5.44 0 3 2.44 5.44 5.44 5.44h6.11a5.44 5.44 0 1 0 0-10.88Z"/><path fill="#FCD53F" d="M16.49 18.46a1.48 1.48 0 1 0 0-2.96 1.48 1.48 0 0 0 0 2.96Z"/><path fill="#F37366" d="M20.83 5.76c0 .24.19.43.43.43.15 0 .28.12.29.27 0 .15-.13.28-.28.28h-.01c-.24 0-.43.19-.43.43v.01a.28.28 0 1 1-.56 0v-.01c0-.24-.19-.43-.43-.43h-.01c-.16 0-.28-.12-.28-.28.01-.15.14-.27.29-.27.24 0 .43-.19.43-.43v-.01a.28.28 0 1 1 .56 0v.01ZM20.84 9.76c0 .24.19.43.43.43.15 0 .28.12.29.27 0 .15-.13.28-.28.28h-.01c-.24 0-.43.19-.43.43v.01a.28.28 0 1 1-.56 0v-.01c0-.24-.19-.43-.43-.43h-.01c-.16 0-.28-.12-.28-.28.01-.15.14-.27.29-.27.24 0 .43-.19.43-.43v-.01a.28.28 0 1 1 .56 0v.01ZM23.69 8.2c-.24 0-.43-.19-.43-.43v-.01a.28.28 0 1 0-.56 0v.01c0 .24-.19.43-.43.43-.15 0-.28.12-.29.27 0 .16.12.28.28.28h.01c.24 0 .43.19.43.43v.01a.28.28 0 1 0 .56 0v-.01c0-.24.19-.43.43-.43h.01c.15 0 .28-.13.28-.28a.294.294 0 0 0-.29-.27ZM17.25 23.54a.67.67 0 1 1-1.34 0 .67.67 0 0 1 1.34 0ZM17.15 26.51a.67.67 0 1 0 0-1.34.67.67 0 0 0 0 1.34ZM18.59 28.12a.67.67 0 1 1-1.34 0 .67.67 0 0 1 1.34 0Z"/></svg>
